X:4
T:Sarabande in E minor
C:Bach, J.S.
M:3/4
L:1/8
Q:1/4=52
K:Emin
|:B2|e3d ef|g2 fe d2|B3c de|f2 ed B2|
e3f gf|e2 dc B2|A3B cd|e6:|
|:^f2|g3a bg|f2 ed ^c2|d3e f^g|a2 ^gf e2|
^c3d e^f|g2 fe d2|B3A Bd|e6:|

